X:1
T:Ecce Maria genuit nobis - Lasso
T:#
%%score [ 1 2 3 ]
L:1/8
Q:1/4=120
M:none
K:F
V:1 treble nm="Soprano"
V:2 treble nm="Alto"
V:3 bass nm="Bass"
V:1
"^Ecce Maria genuit nobis""^Rudolph di Lasso\n(1563-1623)" G8 E4 C4 | G8 E4 c4- | c2 B2 A4 G8 | %3
w: Ec- ce Ma-|ri- a ge\-|* nu- it no-|
 C8 z8 | z8 f8 | d4 B4 f8 | d4 f6 e2 d4 |[M:4/2] c8 F4 B4- | B2 B2 (AGAF G6 FE | FDEF G6 ^FE F4) | %10
w: bis,|ec-|ce Ma- ri-|a ge- nu- it|no- bis Sal\-|* va- to\- * * * * * *||
 G8 z4 f4- | f2 f2 (edec d8) | c4 G8 A4 | (=BAGA BcBc d4) G2 (c2- | c=B/A/ B2) c4 z8 | z16 | %16
w: rem, Sal\-|* va- to\- * * * *|rem, quem Jo-|an\- * * * * * * * * nes vi\-|* * * * dens,||
 z8 G4 A4 | (Bcde f4) e2 (f3 e/d/ e2) | f4 c2 c2 c6 c2 | d4 e4 z8 | z4 c8 A4- | A4 f4 e4 (d4- | %22
w: quem Jo-|an\- * * * * nes vi\- * * *|dens ex- cla- ma- vit,|di- cens:|Ec- ce,|* A- gnus De\-|
 d2 ^c=B c4) d4 d4- | d4 =B4 d4 G4- | G4 (c6 _B2 ABAB) | (cdcd c2 BA G2 F2 G4) | A8 c4 A2 d2 | %27
w: * * * * i, ec\-|* ce A- gnus|* De\- * * * * *||i, ec- ce qui|
 c4 =B2 c2 A2 A2 G4 | F8 z8 | z16 | A4 B2 A2 G4 G2 G2 | A2 c2 c4 A8 || %32
w: tol- lit pec- ca- ta mun-|di,||ec- ce qui tol- lit pec-|ca- ta mun- di,|
[M:3/2][Q:1/4=200] G4 A4 =B4 | c4 d2 c4 =B2 | c4 G4 A4 | _B4 F4 z4 | z12 | z12 | %38
w: Al- le- lu-|ia, Al- le- lu-|ia, Al- le-|lu- ia,|||
[M:3/2][Q:1/4=200][Q:1/4=200][Q:1/4=200] z12 | A4 A4 =B4 | c8 z4 | c4 c4 !courtesy!_B4 | A8 z4 | %43
w: |Al- le- lu-|ia,|Al- le- lu-|ia,|
 d4 d2 (f4 e2) ||[Q:1/4=120] f8 c8- | c4 (AGAF) G8 | A16 |] %47
w: Al- le- lu\- *|ia, Al\-|* le\- * * * lu-|ia.|
V:2
 z16 | z8 C8 | A,4 F,4 C8 | A,4 F6 E2 D4 | C8 F,8 | z16 | F6 G2 A4 B4- |[M:4/2] (B2 AG A4) D8 | %8
w: |Ec-|ce Ma- ri-|a ge- nu- it|no- bis,||ge- nu- it no\-|* * * * bis|
 z4 F6 F2 (EDEC | D8) C4 C4- | C2 C2 (B,A,B,G, A,3 G, A,B,CA,) | (=B,G,A,B, C6 B,A, B,4) | C8 z8 | %13
w: Sal- va- to\- * * *|* rem, Sal\-|* va- to * * * * * * * * *||rem,|
 z16 | z4 C8 D4 | (EDCD EFEF G4) D2 G2- | (G^F/E/ F2) G4 E4 C4 | (D=EFG A6) A2 G4 | %18
w: |quem Jo-|an\- * * * * * * * * nes vi\-|* * * * dens, quem Jo-|an\- * * * * nes vi-|
 A8 A2 A2 A2 E2 | G4 G4 z4 C4- | C4 A,4 z4 F4- | F4 D4 E4 F4 | E8 ^F8 | z4 D4 =B,4 D4 | %24
w: dens ex- cla- ma- vit,|di- cens: Ec\-|* ce, ec\-|* ce A- gnus|De- i,|ec- ce A-|
 G,8 z4 (CDCD) | (EFED EC F4 ED E4) | F8 z8 | z16 | z16 | z16 | F4 D2 F2 E4 D2 E2 | F2 A2 G4 F8 || %32
w: gnus De\- * * *||i,||||ec- ce qui tol- lit pec-|ca- ta mun- di,|
[M:3/2] E4 C4 D4 | E4 D2 E2 D4 | E8 z4 | D4 D4 E4 | F4 E2 C2 D4 | E8 z4 |[M:3/2] z12 | C4 F4 D4 | %40
w: Al- le- lu-|ia, Al- le- lu-|ia,|Al- le- lu-|ia, Al- le- lu-|ia,||Al- le- lu-|
 F8 z4 | A4 A4 G4 | ^F8 z4 | F6 A2 G4 || A4 (A6 G2 F4) | (ECDE FEFD E2 F4) E2 | F16 |] %47
w: ia,|Al- le- lu-|ia,|Al- le- lu-|ia, Al\- * *|le\- * * * * * * * * * lu-|ia.|
V:3
 z16 | z16 | z16 | F,8 D,4 B,,4 | F,8 D,4 B,4- | B,2 A,2 G,4 F,8 | B,,4 D,6 C,2 B,,4 | %7
w: |||Ec- ce Ma-|ri- a ge\-|* nu- it no-|bis, ge- nu- it|
[M:4/2] F,,8 B,,8 | z8 z4 C,4- | C,2 C,2 (B,,A,,B,,G,, A,,8) | G,,4 G,6 F,2 (F,G,A,F,) | G,16 | %12
w: no- bis|Sal\-|* va- to\- * * * *|rem, Sal- va- to\- * * *||
 C,8 z8 | z16 | z16 | z16 | z8 C,2 C,2 F,2 F,,2 | (B,,2 A,,G,, F,,G,,A,,B,, C,8) | %18
w: rem,||||quem Jo- an- nes|vi\- * * * * * * *|
 F,,8 F,2 F,2 F,2 A,2 | G,4 C,4 F,8- | F,16 | D,8 ^C,4 D,4 | A,8 D,8 | G,16 | E,8 F,8 | A,,8 C,8 | %26
w: dens ex- cla- ma- vit,|di- cens: Ec\-||ce, A- gnus|De- i,|ec-|ce A-|gnus De-|
 F,,8 z8 | z16 | F,4 D,2 F,2 E,4 D,2 E,2 | F,2 A,2 G,4 F,8 | F,,4 B,,2 F,,2 C,4 =B,,2 C,2 | %31
w: i,||ec- ce qui tol- lit pec-|ca- ta mun- di,|ec- ce qui tol- lit pec-|
 A,,2 F,,2 C,4 F,,8 ||[M:3/2] C,4 F,4 D,4 | C,4 =B,,2 C,2 G,,4 | C,8 z4 | z12 | z12 | G,4 G,4 A,4 | %38
w: ca- ta mun- di,|Al- le- lu-|ia, Al- le- lu-|ia,|||Al- le- lu-|
[M:3/2] B,4 A,2 F,2 G,4 | F,8 z4 | A,4 A,4 G,4 | F,8 z4 | D,4 D,4 _E,4 | D,4 B,,2 F,,2 C,4 || %44
w: ia, Al- le- lu-|ia,|Al- le- lu-|ia,|Al- le- lu-|ia, Al- le- lu-|
 F,,4 F,8 A,,4 | C,16 | F,,16 |] %47
w: ia, Al- le-|lu-|ia.|

